svgs/sharp-solid/person-half-dress.svg

<svg xmlns="http://www.w3.org/2000/svg" viewBox="0 0 320 512"><!--! Font Awesome Pro 6.6.0 by @fontawesome - https://fontawesome.com License - https://fontawesome.com/license (Commercial License) Copyright 2024 Fonticons, Inc. --><path d="M160 96a48 48 0 1 0 0-96 48 48 0 1 0 0 96zm72 416l0-32 0-227.8 33.8 53 53.9-34.4L238 142.8 228.6 128l-17.5 0L168 128l0 224 0 128 0 32 64 0zM152 384l0-256-43.1 0-17.5 0-9.4 14.8L.2 270.8l53.9 34.4 42-65.8L48 384l40 0 0 96 0 32 64 0 0-32 0-96s0 0 0 0z"/></svg>

<svg xmlns="http://www.w3.org/2000/svg" viewBox="0 0 320 512"><!--! Font Awesome Pro 6.4.2 by @fontawesome - https://fontawesome.com License - https://fontawesome.com/license (Commercial License) Copyright 2023 Fonticons, Inc. --><path d="M160 96a48 48 0 1 0 0-96 48 48 0 1 0 0 96zm72 416V480 252.2l33.8 53 53.9-34.4L238 142.8 228.6 128H211.1 168V352 480v32h64zM152 384V128H108.9 91.4l-9.4 14.8L.2 270.8l53.9 34.4 42-65.8L48 384H88v96 32h64V480 384h0z"/></svg>
